X:209
T:Heiland Harry
R:song
Z:id:hn-song-209
M:2/4
L:1/8
Q:1/4=80
K:Ador
e | A<A Ae | A<A Ae | g>e dB | G>A B
d | ed e<g | a>b ag | ed gB | B>A A2 ||
a2 ag | b>a a2 | (g>a) ge | (d/c/)(B/A/) G
d | ed eg | ab ag | ed gB | B>A A2 ||
W:My Harry was a gallant blade, fu' stately straid he on the plain
W:But noo he's banished far away, and oh he'll ne'er come back again
W:
W:Chorus:
W:Oh, for him back again, oh, for him back again
W:I wad gie a' Knockhaspie's land for Heiland Harry back again
W:
W:When a' the lave gae to their bed, I wander dowie up the glen
W:I set me down and greet ma fill, and aye I wish him back again
W:
W:Chorus
W:
W:Oh were some villains hangit high, and ilka body had their ain
W:Then I would hear the joyful sound, Heiland Harry's back again
W:
W:Chorus

